X:5031
T:Two Arms The Same Length
M:6/8
L:1/8
Q:180
C:Aidan Crossey
R:Jig
K:D
|:D2A ABA|ABA A2F|G2B BdB|BdB BAG|
F2A ABA|ABA ABc|dgf edc|1d3 FGE:||
2 d3 def|
|:gfg efd|edB ABc|def def|gfg efg|
aff gee|fdd ecc|dcd Bdf|1 efe def:||
2 efe d3|
